X:85
T:A Lamb Goes Uncomplaining Forth
%%stretchlast false
M:4/4
L:1/4
K:Eb clef=C1
"^I"[EGeb]2 "^IV"[A,Aec'] "^V"[B,Fdb] | "^vi"[CEeg]2 "^I¹"[G,Beb]2 | "^IV"[A,cea] "^vii°¹"[F,Ada] "^I"[E,Beg]2 | "^V"[B,Bdf]2 "^I"[EBeg] "^IV¹"[Ccea] | "^I¹"[G,Beb]2 "^IV"[A,cea] "^I"[EBeg] | [B,Bef] "^V"[B,Bdf] "^I"[E,Ge]2 | [EGeb]2 "^IV"[A,Aec'] "^V"[B,Fdb] | "^vi"[CEeg]2 "^I¹"[G,Beb]2 | "^IV"[A,cea] "^vii°¹"[F,Ada] "^I"[E,Beg]2 | "^V"[B,Bdf]2 "^I"[EBeg] "^IV¹"[Ccea] | "^I¹"[G,Beb]2 "^IV"[A,cea] "^I"[EBeg] | [B,Bef] "^V"[B,Bdf] "^I"[E,Ge]2 | [EGBe]2 "^V"[B,Bdf] "^I"[EBeg] | "^IV"[A,cea]2 "^V"[B,Bdf]2 | "^I"[EBeg] "^V"[B,Bdf] "^I"[E,GBe]2 | "^IV"[A,Ace]2 "^I"[EBeg] "^IV¹"[CEea] | "^V"[B,Fdb]2 "^IV"[A,Aec']2 | "^vi"[CGeg] "^♭v°¹"[CEe=a] "^V"[B,Fdb]2 | "^vi"[Ce]2 "^I¹"[G,Eeg] [A,Eeg] | "^i7²"[B,Edb] "^vi+"[CAcc'] "^v"[F,Fcb] "^vi"[F,Ecg] | "^ii²"[CFca]2 "^♯I"[A,=Eeg]2 | "^vi"[CEec'] "^IV"[A,Eec'] "^♯vi"[_DA_dc'] [_DA_dc'] | "^♯iii"[B,Af]2 "^v²"[F,_dfb]2 | "^ii²"[Ccfa] "^VI+"[Cc=ea] "^ii"[F,cg]2 | [F,Acf]2 [F,Acf]2 | "^I"[G,Fea] "^V7"[B,Fda] "^vi7"[CBcg] [CBcf] | "^vi"[F,Gce]2 "^iii"[G,ABf] [E,ABf] | "^iii7³"[F,GBd] "^II"[F,G=Ae] "^v"[B,FBc]2 | "^i"[DEB]2 "^vi7"[CGBc] "^iii¹"[B,GBd] | "^I"[EGe] "^vi"[CBef] "^iii¹"[B,Bdg] "^♯iii°"[B,cda] | "^i"[EFeb] [A,Beb]/ "^i¹"[A,Bea]/ "^I²"[B,Beg] "^♯iii°"[B,cda] | "^i"[E,Bef]2 "^I¹"[Ge]2 |]
